X: 8990
T: Cwrw Da
R: slip jig
M: 9/8
K: Eminor
|:D|GAB BGE B2 E|GAB BGE A2 D|GAB BGE B2 E|FGA AFd A2:|
|:F|GBd dBG d2 F|GB/c/d dBG c2 F|GBd dBG dB/A/G|FGA AFd A2:|

